!!!COM: Palestrina, Giovanni Perluigi da
!!!OPR: Missa O magnum mysterium
!!!OMD: Credo
!!!OTL: Et in Spiritum
**kern	**kern	**kern	**kern	**kern
*Ibass	*Itenor	*Icalto	*Icalto	*Icant
!Bassus	!Tenor	!Altus 2	!Altus 1	!Cantus
*clefF4	*clefGv2	*clefG2	*clefG2	*clefG2
*k[]	*k[]	*k[]	*k[]	*k[]
*E:phr	*E:phr	*E:phr	*E:phr	*E:phr
*M4/2	*M4/2	*M4/2	*M4/2	*M4/2
=149	=149	=149	=149	=149
0r	1A	1e	2r	1cc
.	.	.	2A	.
.	2G	2e	2B	2b
.	[2F	[2f	[2c	[2a
=150	=150	=150	=150	=150
0r	2F]	2f]	2c]	2a]
.	2D	2f	2d	2a
.	1E	2e	1B	4g
.	.	.	.	4f
.	.	[2e	.	4e
.	.	.	.	4d
=151	=151	=151	=151	=151
1A	1.e	2e]	2r	2c
.	.	2A	2c	2cc
2G	.	2B	2e	2b
[2F	2A	2c	[2f	[2a
=152	=152	=152	=152	=152
2F]	2c	1A	2f]	2a]
2D	2d	.	2f	2a
2E	2B	2r	2e	2g#
[2E	2B	[2e	[2g#	[2b
=153	=153	=153	=153	=153
2E]	2B	2e]	2g#]	2b]
2E	2.e	2e	2g#	2b
2.A	.	2c	[1a	1cc
.	4d	.	.	.
.	4c	4A	.	.
4G	4B	4B	.	.
=154	=154	=154	=154	=154
2F	2A	4c	2a]	1cc
.	.	4d	.	.
2E	1c	2e	2g	.
1D	.	2f	2a	1dd
.	2B	2d	4g	.
.	.	.	4f	.
=155	=155	=155	=155	=155
1C	2.c	2r	2.e	1g
.	.	1g	.	.
.	4B	.	4d	.
1r	1A	.	1c	2r
.	.	2f	.	[2cc
=156	=156	=156	=156	=156
0r	1G	2e	1g	2cc]
.	.	2d	.	2b
.	1r	2f	2r	2a
.	.	2e	[2g	2g
=157	=157	=157	=157	=157
0r	0r	1d	2g]	2b-
.	.	.	2f	2a
.	.	2c	2e	2a
.	.	2B	2d	[2g
=158	=158	=158	=158	=158
0r	2r	1A	2e	2g]
.	2.c	.	2c	2f
.	.	2G	2d	1g
.	4B	.	.	.
.	2B	[2d	2d	.
=159	=159	=159	=159	=159
1r	2.A	4d]	4f	0a
.	.	4c	4e	.
.	.	2c	1e	.
.	4G	.	.	.
2r	1F	2.A	.	.
[2A	.	.	2d	.
.	.	4B	.	.
=160	=160	=160	=160	=160
2A]	2E	2c	1e	0r
2G	2e	2B	.	.
2F	2d	2A	2r	.
2E	[2c	2G	[2e	.
=161	=161	=161	=161	=161
1G	2c]	0r	2e]	0r
.	2B	.	2d	.
2F	2A	.	2d	.
2E	[2G	.	2c	.
=162	=162	=162	=162	=162
2.D	4G]	1r	2B	0r
.	8F	.	.	.
.	8E	.	.	.
.	2F	.	1A	.
4C	.	.	.	.
1BB	1D	2r	.	.
.	.	[2d	2G#	.
=163	=163	=163	=163	=163
1AA	2.E	2d]	1A	2r
.	.	2c	.	1a
.	8D	.	.	.
.	8E	.	.	.
1r	2F	2A	2r	.
.	2G	2B	2d	2g
=164	=164	=164	=164	=164
2r	1A	1.c	2c	1e
1A	.	.	2A	.
.	1r	.	2c	2f
2G	.	4B	2d	[2g
.	.	4A	.	.
=165	=165	=165	=165	=165
2E	0r	1B	1e	4g]
.	.	.	.	4f
2G	.	.	.	2.e
1F	.	2.A	2r	.
.	.	.	.	8d
.	.	.	.	8c
.	.	.	2a	2d
.	.	4B	.	.
=166	=166	=166	=166	=166
1C	2r	2c	2a	2.e
.	2c	2e	2g	.
.	.	.	.	4f
1r	2c	2e	2e	1g
.	2B	2d	[2g	.
=167	=167	=167	=167	=167
0r	2G	2B	4g]	1r
.	.	.	4f	.
.	2B	2.d	2d	.
.	1A	.	1e	2r
.	.	4c	.	.
.	.	4c	.	2a
.	.	8B	.	.
.	.	8A	.	.
=168	=168	=168	=168	=168
1r	2E	2B	1e	2a
.	2e	1c	.	2g
1A	2e	.	2r	1e
.	2c	2A	2A	.
=169	=169	=169	=169	=169
2A	2A	0r	2c	2f
2G	2B	.	2d	2.g
2E	2c	.	2G	.
.	.	.	.	4f
2G	[2B	.	2G	[2e
=170	=170	=170	=170	=170
1F	4B]	0r	1A	4e]
.	4A	.	.	8d
.	.	.	.	8c
.	1A	.	.	2d
1E	.	.	1B	1e
.	2G#	.	.	.
=171	=171	=171	=171	=171
0r	2.A	2.a	2.e	2.cc
.	4A	4a	4e	4cc
.	2A	2a	2e	2cc
.	2E	2g	2e	2b
=172	=172	=172	=172	=172
0r	2F	2f	2c	2a
.	4D	1f	1d	4a
.	4E	.	.	4g
.	4F	.	.	4a
.	4G	.	.	4b
.	[2A	4e	2c	[2cc
.	.	4d	.	.
=173	=173	=173	=173	=173
0r	4A]	2e	4A	4cc]
.	4G#	.	4B	4b
.	2A	2e	4c	2.a
.	.	.	4A	.
.	1E	1e	1B	.
.	.	.	.	8g
.	.	.	.	8f#
.	.	.	.	2g#
*-	*-	*-	*-	*-
!!!CDT: 1525/^1526/-1594/2/2
!!!OCY: Italia
!!!AGN: Mass (Parody)
!!!AST: renaissance, vocal
!!!ASW: Motet 1569 (Palestrina)
!!!PWK: Masses, Book 4
!!!RNB: Cadence finals: A,C,G,F
!!!YOR: Le Opere Complete, v. 10, p. 150
!!!YOO: Rome, Italy: Fratelli Scalera
!!!END: 1992//
!!!EED: John Miller
!!!YEC: Copyright 2000, John Miller
!!!YEN: United States of America
!!!YEM: Rights to all derivative electronic formats reserved.
!!!YEM: Refer to licensing agreement for further details.
!!!YEM: This file must be accompanied by the licensing agreement.
!!!YEM: A copy of the licensing agreement may be found at http://www.music-cog.ohio-state.edu/HumdrumDatabases/Palestrina/license.txt
!!!EMD: converted to Humdrum by Bret Aarden
